X: 06
T: PARSON'S FAREWELL
B: "FIFTY OLD ENGLISH FOLK DANCE AIRS", Edgar H. Hunt ed., Schott & Co. Ltd. pub., London 1939
Z: 2004-2014 John Chambers <jc:trillian.mit.edu>
M: 2/2
L: 1/8
K: Dm
|:\
(f2d2) d2(ef) | (g2c2) c3c |\
(de)f2 e2d2 |[1 (c2A2) A4 :|[2 (c2A2) A2 \
|: a2 |\
f4 f2a2 | f4 f2a2 |
(fg)a2 (fg)a2 | g2e2 e4 |\
(ef)g2 (ef)g2 | f2d2 (de)fg |\
a2gf (ed)e2 |[1 d6 :|[2 d8 |]

%%sep 1 1 500
%%sep 1 1 500
